!!! OTL: Berkowitz552
!!! Chapter: 1
!!! Section: V
!!! Page: 139
!!! Mode: 
!!! Encoder: DJB
**kern
*staff1
*I"Piano
=1-
*clefG2
*k[]
*C:
*M6/8
8d/L
8c#/
8d/J
8e/L
8f/
8g/J
=2
8a-/L
8.b-/
16a-/Jk
8g/L
8f/
8e/J
=3
8d/L
8c#/
8d/J
8e/L
8f/
8g/J
=4
8a-/L
8.b-/
16bn/Jk
4cc#\
8r
=5
8.b/L
16b-/K
8a-/J
4g/
8r
=6
8.a-/L
16g/K
8f/J
4e/
8r
=7
!!linebreak:original
8f/L
8e/
8f/J
8g/L
8a-/
8b-/J
=8
4.r
4.r
=9
8f/L
8g/
8a-/J
8g/L
8f/
8e/J
=10
4.r
4.r
=11
8f/L
8.g/
16a-/Jk
8g/L
8f/
8e/J
=12
4.d/
8r
4r
==
*-
